X: 1
T: Mary Brennan's Favourite
M: 2/4
L: 1/8
R: polka
K: Gmaj
|:G>E D2 E>FG>B|A>GE>F G>Bd>c|
B>D D2 E>FG>B|A>GE>F G2 G2:|
|:B2 B>A B>cd>B|A2 A>G A>Bd>c|
B2 B>A B>cd>B|A>GE>F G2 G2:|
2 :|
